site/_assets/img/04.svg

<svg viewBox="0 0 500 500" xmlns="http://www.w3.org/2000/svg">
<path d="M55.6 475H231.1C202.3 431.8 191.5 372.4 191.5 208.6C191.5 87.0999 207.7 61 245.5 61C300.4 61 330.1 93.4 330.1 155.5C330.1 226.6 298.6 254.5 237.4 254.5H221.2C228.4 276.1 255.4 290.5 312.1 290.5C396.7 290.5 444.4 241.9 444.4 154.6C444.4 74.4999 388.6 25 279.7 25H56.5001C77.2001 70 88.0001 115.9 88.0001 232.9C88.0001 349.9 77.2 441.7 55.6 475Z" fill="#FFFFFF"/>
</svg>

<svg viewBox="0 0 500 500" xmlns="http://www.w3.org/2000/svg"><path d="m55.6 475h175.5c-28.8-43.2-39.6-102.6-39.6-266.4 0-121.5001 16.2-147.6 54-147.6 54.9 0 84.6 32.4 84.6 94.5 0 71.1-31.5 99-92.7 99h-16.2c7.2 21.6 34.2 36 90.9 36 84.6 0 132.3-48.6 132.3-135.9 0-80.1001-55.8-129.6-164.7-129.6h-223.1999c20.7 45 31.5 90.9 31.5 207.9s-10.8001 208.8-32.4001 242.1z" fill="#fafafa"/></svg>
